src/assets/updog-notification.svg

<svg fill="none" height="259" viewBox="0 0 261 259" width="261" xmlns="http://www.w3.org/2000/svg"><ellipse cx="122" cy="123" fill="#e3f2fd" rx="122" ry="123"/><ellipse cx="165.841" cy="237.677" fill="#c4c4c4" fill-opacity=".5" rx="95.1586" ry="20.5112"/><ellipse cx="58.9152" cy="180.592" fill="#c8bbbb" rx="3.02625" ry="2.35375"/><path d="m102.379 198.663-5.5371-16.612s-9.6173-10.185-9.6173-43.774l-.8695-8.111s-20.8363-75.6931 34.7249-81.9748c36.517-4.1243 60.312 9.7351 72.34 19.7218 6.498 5.3974 7.932 12.8302 9.594 21.1093 1.449 7.2041-5.476 21.0177-2.57 28.5117 12.508 32.232 14.582 34.321 17.953 38.536 1.922 2.409 8.725 7.738 13.103 15.796 8.779 16.154 6.735 40.816 6.735 40.816l-87.8 15.72s-27.578 3.948-38.157-4.033l-.8-8.874" fill="#e4b652"/><path d="m237.164 200.546s4.342-4.128 7.427-11.493c3.086-7.364 8.744-2.856 9.518.83.758 3.618 4.257 12.681-16.202 22.498l-3.032-6.451z" fill="#e4b652"/><path d="m120.013 47.0229s-23.6849 3.8036-32.4157 4.2237-14.0136-1.1991-16.1389 12.5106c-2.1254 13.7096 3.4479 24.685 6.2461 25.8307 2.9051 1.1915 7.0564 1.7414 10.5732-7.1107s7.3317-19.881 15.5813-25.1357c6.972-4.4375 13.386-6.9961 15.213-7.6835.429-.1604.826-.3743 1.193-.634.994-.7026 2.446-2.0011-.252-2.0011z" fill="#544b43"/><path d="m172.898 57.2012s-1.723-4.8405 7.041-.1829c8.765 4.6575 15.928 8.1411 24.225 10.3289 8.297 2.1877 12.871 3.4379 13.653 10.8701.789 7.4323-6.29 18.7141-12.672 25.1937-3.509 3.567-5.792 2.477-7.133.777-1.042-1.318-1.517-3.003-1.486-4.6801.053-2.7671-.314-9.0331-3.915-15.7107-2.697-4.9929-12.028-21.6107-19.713-26.596z" fill="#544b43"/><path d="m107.083 92.9545s14.176-9.4658 30.315-6.869 22.356 17.3855 22.356 17.3855" stroke="#544b43" stroke-linecap="round" stroke-linejoin="round" stroke-miterlimit="10" stroke-width="1.6"/><path d="m135.062 92.0628s-9.962-3.0976-10.558 5.3756c-.068 1.0075.382 2.03 1.275 2.5187 1.084.5869 3.023.8269 6.459-.5789 0 0 1.274-.7519 2.336.5112 1.068 1.2636 2.038 3.2406 5.305 2.9176 1.344-.136 2.245-.88 2.84-1.715 1.214-1.6988 1.176-4.037-.191-5.6159-1.145-1.3307-3.328-2.7367-7.466-3.4133z" fill="#544b43"/><path d="m86.3075 130.162s49.0235 17.176 113.8925-14.1l5.508 11.63s-64.35 31.782-119.2403 12.228z" fill="#16d2aa"/><path d="m134.789 169.589c5.846 0 10.585-5.051 10.585-11.282 0-6.23-4.739-11.281-10.585-11.281-5.845 0-10.584 5.051-10.584 11.281 0 6.231 4.739 11.282 10.584 11.282z" fill="#fff"/><path d="m134.788 146.776c-6.524 0-11.82 5.286-11.82 11.815 0 6.522 5.288 11.816 11.82 11.816 6.524 0 11.82-5.286 11.82-11.816 0-6.529-5.296-11.815-11.82-11.815zm0 21.991c-5.624 0-10.187-4.562-10.187-10.183 0-5.622 4.555-10.183 10.187-10.183 5.624 0 10.187 4.554 10.187 10.183s-4.563 10.183-10.187 10.183z" fill="#16d2aa"/><path d="m134.79 168.774c5.626 0 10.187-4.559 10.187-10.183s-4.561-10.183-10.187-10.183-10.187 4.559-10.187 10.183 4.561 10.183 10.187 10.183z" fill="#fff"/><path d="m129.684 161.045c.328.404.763.61 1.312.61.55 0 .985-.206 1.305-.61.321-.405.481-.961.481-1.656v-3.661l1.954-1.175v4.897c0 1.267-.351 2.243-1.053 2.922-.703.679-1.595 1.022-2.694 1.022-1.091 0-1.992-.343-2.701-1.03-.703-.686-1.061-1.655-1.061-2.914v-3.722l1.953-1.175v4.829c.016.709.176 1.258.504 1.663z" fill="#16d2aa"/><path d="m141.418 155.339c.61.519.923 1.32.923 2.403s-.313 1.869-.946 2.372-1.595.748-2.885.748h-1.167v1.266l-1.954 1.174v-8.749h3.091c1.343.008 2.32.267 2.938.786zm-1.435 3.44c.237-.259.351-.648.351-1.152 0-.503-.152-.862-.458-1.075-.305-.214-.778-.32-1.419-.32h-1.114v2.944h1.312c.649 0 1.092-.13 1.328-.397z" fill="#16d2aa"/><path d="m134.699 145.177s1.2 2.081.053 3.206c-1.154 1.133.6.375.6.375s1.07-2.066 0-3.581c0 0-.228-.827-.653 0z" fill="#b5dfd5"/><path d="m133.312 146.134.42-.066v.795l-.42.044z" fill="#b5dfd5"/><path d="m133.522 99.2727-1.262 6.2773s.874 3.301 6.204 4.537c.372.083.752.113 1.133.09 1.231-.068 3.93-.407 5.253-1.967" stroke="#544b43" stroke-linecap="round" stroke-linejoin="round" stroke-miterlimit="10" stroke-width="1.6"/><path d="m132.263 105.361s-2.528 4.239-6.585 3.19c-4.056-1.049-4.117-3.19-4.117-3.19" stroke="#544b43" stroke-linecap="round" stroke-linejoin="round" stroke-miterlimit="10" stroke-width="1.6"/><path d="m114.426 85.2152c1.854 0 3.358-1.5032 3.358-3.3575s-1.504-3.3575-3.358-3.3575-3.357 1.5032-3.357 3.3575 1.503 3.3575 3.357 3.3575z" fill="#1d1c1a"/><path d="m159.123 93.6083c1.854 0 3.357-1.5032 3.357-3.3575s-1.503-3.3575-3.357-3.3575c-1.855 0-3.358 1.5032-3.358 3.3575s1.503 3.3575 3.358 3.3575z" fill="#1d1c1a"/><path d="m94.7822 143.494-24.1954-14.693c-3.6778-2.828-9.225-2.046-11.7603 1.91-2.8303 4.42 1.8498 23.175 33.4578 35.989" fill="#e4b652"/><path d="m94.7816 143.49-5.938-3.839c-1.9805-1.282-3.9868-2.527-5.9822-3.785l-5.9971-3.762-6.031-3.704.0404.031c-1.7776-1.383-4.1372-2.03-6.4224-1.746-2.2837.25-4.469 1.521-5.7969 3.405-.7023.943-1.0326 2.135-1.1086 3.244-.0697 1.123.0597 2.23.2885 3.292.4744 2.14 1.3733 4.119 2.4198 5.989 2.1632 3.724 5.0085 6.968 8.1004 9.905 3.1061 2.931 6.5226 5.526 10.0783 7.882-3.4148-2.554-6.7083-5.257-9.6961-8.267-2.9956-2.99-5.7068-6.278-7.7299-9.94-1.01-1.828-1.852-3.758-2.2793-5.778-.4186-1.981-.4823-4.201.7145-5.79 1.1785-1.648 3.0973-2.712 5.117-2.976 2.0237-.273 4.123.275 5.7264 1.503l.0237.015.0238.014 6.0718 3.643 6.1057 3.587c2.0403 1.187 4.0655 2.398 6.1207 3.562z" fill="#c58f2c"/><path d="m238.233 212.799s-7.524 25.512-33.623 29.496c-26.107 3.984-32.878 0-32.878 0s-4.782-2.788 3.785-7.976c8.568-5.188 13.953-7.572 13.953-7.572s-36.663 2.194-49.023 1.79" fill="#e4b652"/><path d="m160.381 228.066s-22.22 3.191-48.159 8.202c-13.3427 2.574-19.7741 2.323-22.7307 1.767-1.9965-.381-3.6576-1.919-3.9701-3.922-.2895-1.889.4877-4.425 4.7702-7.014 8.5726-5.178 9.007-3.975 9.007-3.975-10.5234-11.355 3.1396-24.385 3.1396-24.385s14.905 22.671 36.424 26.007" fill="#e4b652"/><path d="m144.512 198.711s1.259 30.557-4.617 31.983c-5.876 1.427-3.159 16.392 15.895 7.384s18.391-44.5 18.391-44.5" fill="#e4b652"/><path d="m144.512 198.712c.267 4.63.32 9.283.213 13.928-.076 2.319-.198 4.645-.434 6.964-.237 2.319-.55 4.638-1.168 6.911-.32 1.136-.71 2.273-1.419 3.31-.367.496-.847 1.007-1.534 1.228l-.412.138c-.122.038-.244.076-.351.145-.237.099-.435.259-.634.411-.755.679-1.175 1.724-1.182 2.785-.039 1.067.32 2.128.908 3.02.61.885 1.465 1.587 2.449 2.067.985.481 2.076.725 3.19.809 2.228.175 4.502-.252 6.677-.916.542-.183 1.084-.343 1.625-.541.534-.214 1.069-.404 1.595-.626l1.572-.694 1.503-.793c1.962-1.144 3.732-2.609 5.273-4.287 1.542-1.678 2.87-3.562 4.014-5.545 1.13-1.999 2.083-4.096 2.915-6.24 1.656-4.302 2.763-8.81 3.533-13.371.786-4.561 1.244-9.184 1.351-13.821.114 4.645-.237 9.29-.87 13.897-.671 4.6-1.702 9.169-3.296 13.562-1.572 4.394-3.801 8.627-6.975 12.128-1.587 1.747-3.419 3.288-5.464 4.493l-1.572.839-1.602.725c-.542.229-1.092.435-1.641.656-.549.206-1.114.381-1.671.572-2.259.671-4.64 1.106-7.043.908-1.198-.1-2.404-.374-3.511-.923-1.106-.542-2.09-1.358-2.793-2.395-.679-1.045-1.083-2.281-1.037-3.547.015-1.251.511-2.548 1.503-3.417.259-.199.526-.397.824-.527.145-.084.298-.129.45-.183l.42-.137c.435-.122.809-.496 1.129-.915.626-.87 1.031-1.953 1.359-3.036.648-2.189.999-4.478 1.282-6.774.274-2.296.442-4.607.572-6.918.252-4.607.298-9.245.252-13.89z" fill="#c58f2c"/><path d="m102.045 198.739c6.201 12.762 27.315 21.42 40.919 26.86z" fill="#e4b652"/><path d="m102.045 198.739c6.201 12.762 27.315 21.42 40.919 26.86" stroke="#c58f2c" stroke-miterlimit="10" stroke-width="1.302"/><path d="m189.457 226.73c-3.32-1.746-6.181-4.515-7.837-7.978-.817-1.732-1.244-3.654-1.29-5.568-.046-1.923.29-3.837.878-5.66.61-1.823 1.511-3.501 2.48-5.141 1.038-1.587 2.129-3.143 3.403-4.546 2.488-2.853 5.288-5.385 8.257-7.689l-2.053 1.922c-.694.626-1.328 1.327-1.999 1.983-.679.649-1.297 1.35-1.931 2.037-.648.671-1.228 1.403-1.824 2.128-1.182 1.442-2.266 2.96-3.258 4.531-.923 1.609-1.786 3.257-2.35 5.011-.58 1.747-.931 3.57-.901 5.401.016 1.83.428 3.646 1.13 5.347.725 1.693 1.778 3.242 3.029 4.622 1.229 1.381 2.671 2.601 4.266 3.6z" fill="#c48f2c"/><path d="m93.9664 231.477c1.5646 0 2.8329-.658 2.8329-1.469s-1.2683-1.469-2.8329-1.469c-1.5645 0-2.8329.658-2.8329 1.469s1.2684 1.469 2.8329 1.469z" fill="#c58f2c"/><path d="m91.0284 234.833c1.2169 0 2.2034-.517 2.2034-1.154s-.9865-1.154-2.2034-1.154-2.2033.517-2.2033 1.154.9864 1.154 2.2033 1.154z" fill="#c58f2c"/><path d="m93.7561 237.352c1.3328 0 2.4132-.376 2.4132-.839 0-.464-1.0804-.84-2.4132-.84s-2.4132.376-2.4132.84c0 .463 1.0804.839 2.4132.839z" fill="#c58f2c"/><path d="m99.7369 236.3c2.7811 0 5.0361-1.175 5.0361-2.624 0-1.448-2.255-2.623-5.0361-2.623-2.7814 0-5.0362 1.175-5.0362 2.623 0 1.449 2.2548 2.624 5.0362 2.624z" fill="#c58f2c"/><path d="m111.804 221.237s-12.9797 1.06-13.6436 1.914z" fill="#e4b652"/><path d="m111.804 221.237c-1.137.213-2.281.373-3.418.526-1.137.16-2.282.29-3.426.427l-3.427.374c-.572.053-1.144.122-1.7091.206-.5647.084-1.1599.114-1.6635.381.206-.213.5036-.297.7707-.404.2747-.092.5571-.176.8394-.252.5645-.137 1.1295-.252 1.7015-.366 1.137-.221 2.282-.366 3.426-.503 1.145-.122 2.297-.237 3.45-.298 1.152-.061 2.304-.107 3.456-.091z" fill="#c58f2c"/><path d="m59.7207 133.689c.1633-1.809 1.7617-3.143 3.5703-2.979 1.8085.163 3.1422 1.762 2.9789 3.57l-1.8482 20.466-6.5492-.591z" fill="#565961"/><path d="m56.0641 154.495c.7544-2.167 2.8867-3.542 5.1717-3.336l.4104.037c2.285.207 4.1364 1.942 4.4904 4.208l.4436 2.84-11.4612-1.035z" fill="#565961"/><path d="m50.5113 160.177c.6107-2.373 2.8514-3.954 5.2919-3.734l10.2467.926c2.4405.22 4.3617 2.177 4.5375 4.621l1.3676 19.021-26.1968-2.366z" fill="#fae265"/><g stroke-linecap="round" stroke-linejoin="round"><path d="m50.1939 152.216c-2.8356.431-8.4096 3.239-8.0206 11.018" stroke="#939393"/><path d="m72.2091 154.211c2.8858.822 8.2618 4.61 6.6796 13.187" stroke="#939393"/><path d="m44.5062 151.025c-2.8357.431-8.4097 3.239-8.0206 11.018" stroke="#939393"/><path d="m77.4568 153.426c2.8858.822 8.2618 4.61 6.6796 13.187" stroke="#939393"/></g><path d="m43.1129 178.54 4.4396-5.683 23.9239 2.082 3.244 6.661z" fill="#fae265"/><path d="m67.3231 160.079c.3363.112 1.0088.739 1.0088 2.353v8.407c0 .224.0672.874.3362 1.681" stroke="#fef8c7" stroke-linecap="round" stroke-linejoin="round" stroke-width="2"/></svg>

<svg width="261" height="259" viewBox="0 0 261 259" fill="none" xmlns="http://www.w3.org/2000/svg">
<ellipse cx="122" cy="123" rx="122" ry="123" fill="#E3F2FD"/>
<ellipse cx="165.841" cy="237.677" rx="95.1586" ry="20.5112" fill="#C4C4C4" fill-opacity="0.5"/>
<ellipse cx="58.9152" cy="180.592" rx="3.02625" ry="2.35375" fill="#C8BBBB"/>
<path d="M102.379 198.663L96.8419 182.051C96.8419 182.051 87.2246 171.866 87.2246 138.277L86.3551 130.166C86.3551 130.166 65.5188 54.4729 121.08 48.1912C157.597 44.0669 181.392 57.9263 193.42 67.913C199.918 73.3104 201.352 80.7432 203.014 89.0223C204.463 96.2264 197.538 110.04 200.444 117.534C212.952 149.766 215.026 151.855 218.397 156.07C220.319 158.479 227.122 163.808 231.5 171.866C240.279 188.02 238.235 212.682 238.235 212.682L150.435 228.402C150.435 228.402 122.857 232.35 112.278 224.369L111.478 215.495" fill="#E4B652"/>
<path d="M237.164 200.546C237.164 200.546 241.506 196.418 244.591 189.053C247.677 181.689 253.335 186.197 254.109 189.883C254.867 193.501 258.366 202.564 237.907 212.381L234.875 205.93L237.164 200.546Z" fill="#E4B652"/>
<path d="M120.013 47.0229C120.013 47.0229 96.3281 50.8265 87.5973 51.2466C78.8665 51.6667 73.5837 50.0475 71.4584 63.7572C69.333 77.4668 74.9063 88.4422 77.7045 89.5879C80.6096 90.7794 84.7609 91.3293 88.2777 82.4772C91.7945 73.6251 95.6094 62.5962 103.859 57.3415C110.831 52.904 117.245 50.3454 119.072 49.658C119.501 49.4976 119.898 49.2837 120.265 49.024C121.259 48.3214 122.711 47.0229 120.013 47.0229Z" fill="#544B43"/>
<path d="M172.898 57.2012C172.898 57.2012 171.175 52.3607 179.939 57.0183C188.704 61.6758 195.867 65.1594 204.164 67.3472C212.461 69.5349 217.035 70.7851 217.817 78.2173C218.606 85.6496 211.527 96.9314 205.145 103.411C201.636 106.978 199.353 105.888 198.012 104.188C196.97 102.87 196.495 101.185 196.526 99.5079C196.579 96.7408 196.212 90.4748 192.611 83.7972C189.914 78.8043 180.583 62.1865 172.898 57.2012Z" fill="#544B43"/>
<path d="M107.083 92.9545C107.083 92.9545 121.259 83.4887 137.398 86.0855C153.537 88.6823 159.754 103.471 159.754 103.471" stroke="#544B43" stroke-width="1.6" stroke-miterlimit="10" stroke-linecap="round" stroke-linejoin="round"/>
<path d="M135.062 92.0628C135.062 92.0628 125.1 88.9652 124.504 97.4384C124.436 98.4459 124.886 99.4684 125.779 99.9571C126.863 100.544 128.802 100.784 132.238 99.3782C132.238 99.3782 133.512 98.6263 134.574 99.8894C135.642 101.153 136.612 103.13 139.879 102.807C141.223 102.671 142.124 101.927 142.719 101.092C143.933 99.3932 143.895 97.055 142.528 95.4761C141.383 94.1454 139.2 92.7394 135.062 92.0628Z" fill="#544B43"/>
<path d="M86.3075 130.162C86.3075 130.162 135.331 147.338 200.2 116.062L205.708 127.692C205.708 127.692 141.358 159.474 86.4677 139.92L86.3075 130.162Z" fill="#16D2AA"/>
<path d="M134.789 169.589C140.635 169.589 145.374 164.538 145.374 158.307C145.374 152.077 140.635 147.026 134.789 147.026C128.944 147.026 124.205 152.077 124.205 158.307C124.205 164.538 128.944 169.589 134.789 169.589Z" fill="white"/>
<path d="M134.788 146.776C128.264 146.776 122.968 152.062 122.968 158.591C122.968 165.113 128.256 170.407 134.788 170.407C141.312 170.407 146.608 165.121 146.608 158.591C146.608 152.062 141.312 146.776 134.788 146.776ZM134.788 168.767C129.164 168.767 124.601 164.205 124.601 158.584C124.601 152.962 129.156 148.401 134.788 148.401C140.412 148.401 144.975 152.955 144.975 158.584C144.975 164.213 140.412 168.767 134.788 168.767Z" fill="#16D2AA"/>
<path d="M134.79 168.774C140.416 168.774 144.977 164.215 144.977 158.591C144.977 152.967 140.416 148.408 134.79 148.408C129.164 148.408 124.603 152.967 124.603 158.591C124.603 164.215 129.164 168.774 134.79 168.774Z" fill="white"/>
<path d="M129.684 161.045C130.012 161.449 130.447 161.655 130.996 161.655C131.546 161.655 131.981 161.449 132.301 161.045C132.622 160.64 132.782 160.084 132.782 159.389V155.728L134.736 154.553V159.45C134.736 160.717 134.385 161.693 133.683 162.372C132.98 163.051 132.088 163.394 130.989 163.394C129.898 163.394 128.997 163.051 128.288 162.364C127.585 161.678 127.227 160.709 127.227 159.45V155.728L129.18 154.553V159.382C129.196 160.091 129.356 160.64 129.684 161.045Z" fill="#16D2AA"/>
<path d="M141.418 155.339C142.028 155.858 142.341 156.659 142.341 157.742C142.341 158.825 142.028 159.611 141.395 160.114C140.762 160.617 139.8 160.862 138.51 160.862H137.343V162.128L135.389 163.302V154.553H138.48C139.823 154.561 140.8 154.82 141.418 155.339ZM139.983 158.779C140.22 158.52 140.334 158.131 140.334 157.627C140.334 157.124 140.182 156.765 139.876 156.552C139.571 156.338 139.098 156.232 138.457 156.232H137.343V159.176H138.655C139.304 159.176 139.747 159.046 139.983 158.779Z" fill="#16D2AA"/>
<path d="M134.699 145.177C134.699 145.177 135.899 147.258 134.752 148.383C133.598 149.516 135.352 148.758 135.352 148.758C135.352 148.758 136.422 146.692 135.352 145.177C135.352 145.177 135.124 144.35 134.699 145.177Z" fill="#B5DFD5"/>
<path d="M133.312 146.134L133.732 146.068V146.863L133.312 146.907V146.134Z" fill="#B5DFD5"/>
<path d="M133.522 99.2727L132.26 105.55C132.26 105.55 133.134 108.851 138.464 110.087C138.836 110.17 139.216 110.2 139.597 110.177C140.828 110.109 143.527 109.77 144.85 108.21" stroke="#544B43" stroke-width="1.6" stroke-miterlimit="10" stroke-linecap="round" stroke-linejoin="round"/>
<path d="M132.263 105.361C132.263 105.361 129.735 109.6 125.678 108.551C121.622 107.502 121.561 105.361 121.561 105.361" stroke="#544B43" stroke-width="1.6" stroke-miterlimit="10" stroke-linecap="round" stroke-linejoin="round"/>
<path d="M114.426 85.2152C116.28 85.2152 117.784 83.712 117.784 81.8577C117.784 80.0034 116.28 78.5002 114.426 78.5002C112.572 78.5002 111.069 80.0034 111.069 81.8577C111.069 83.712 112.572 85.2152 114.426 85.2152Z" fill="#1D1C1A"/>
<path d="M159.123 93.6083C160.977 93.6083 162.48 92.1051 162.48 90.2508C162.48 88.3965 160.977 86.8933 159.123 86.8933C157.268 86.8933 155.765 88.3965 155.765 90.2508C155.765 92.1051 157.268 93.6083 159.123 93.6083Z" fill="#1D1C1A"/>
<path d="M94.7822 143.494L70.5868 128.801C66.909 125.973 61.3618 126.755 58.8265 130.711C55.9962 135.131 60.6763 153.886 92.2843 166.7" fill="#E4B652"/>
<path d="M94.7816 143.49L88.8436 139.651C86.8631 138.369 84.8568 137.124 82.8614 135.866L76.8643 132.104L70.8333 128.4L70.8737 128.431C69.0961 127.048 66.7365 126.401 64.4513 126.685C62.1676 126.935 59.9823 128.206 58.6544 130.09C57.9521 131.033 57.6218 132.225 57.5458 133.334C57.4761 134.457 57.6055 135.564 57.8343 136.626C58.3087 138.766 59.2076 140.745 60.2541 142.615C62.4173 146.339 65.2626 149.583 68.3545 152.52C71.4606 155.451 74.8771 158.046 78.4328 160.402C75.018 157.848 71.7245 155.145 68.7367 152.135C65.7411 149.145 63.0299 145.857 61.0068 142.195C59.9968 140.367 59.1548 138.437 58.7275 136.417C58.3089 134.436 58.2452 132.216 59.442 130.627C60.6205 128.979 62.5393 127.915 64.559 127.651C66.5827 127.378 68.682 127.926 70.2854 129.154L70.3091 129.169L70.3329 129.183L76.4047 132.826L82.5104 136.413C84.5507 137.6 86.5759 138.811 88.6311 139.975L94.7816 143.49Z" fill="#C58F2C"/>
<path d="M238.233 212.799C238.233 212.799 230.709 238.311 204.61 242.295C178.503 246.279 171.732 242.295 171.732 242.295C171.732 242.295 166.95 239.507 175.517 234.319C184.085 229.131 189.47 226.747 189.47 226.747C189.47 226.747 152.807 228.941 140.447 228.537" fill="#E4B652"/>
<path d="M160.381 228.066C160.381 228.066 138.161 231.257 112.222 236.268C98.8793 238.842 92.4479 238.591 89.4913 238.035C87.4948 237.654 85.8337 236.116 85.5212 234.113C85.2317 232.224 86.0089 229.688 90.2914 227.099C98.864 221.921 99.2984 223.124 99.2984 223.124C88.775 211.769 102.438 198.739 102.438 198.739C102.438 198.739 117.343 221.41 138.862 224.746" fill="#E4B652"/>
<path d="M144.512 198.711C144.512 198.711 145.771 229.268 139.895 230.694C134.019 232.121 136.736 247.086 155.79 238.078C174.844 229.07 174.181 193.578 174.181 193.578" fill="#E4B652"/>
<path d="M144.512 198.712C144.779 203.342 144.832 207.995 144.725 212.64C144.649 214.959 144.527 217.285 144.291 219.604C144.054 221.923 143.741 224.242 143.123 226.515C142.803 227.651 142.413 228.788 141.704 229.825C141.337 230.321 140.857 230.832 140.17 231.053L139.758 231.191C139.636 231.229 139.514 231.267 139.407 231.336C139.17 231.435 138.972 231.595 138.773 231.747C138.018 232.426 137.598 233.471 137.591 234.532C137.552 235.599 137.911 236.66 138.499 237.552C139.109 238.437 139.964 239.139 140.948 239.619C141.933 240.1 143.024 240.344 144.138 240.428C146.366 240.603 148.64 240.176 150.815 239.512C151.357 239.329 151.899 239.169 152.44 238.971C152.974 238.757 153.509 238.567 154.035 238.345L155.607 237.651L157.11 236.858C159.072 235.714 160.842 234.249 162.383 232.571C163.925 230.893 165.253 229.009 166.397 227.026C167.527 225.027 168.48 222.93 169.312 220.786C170.968 216.484 172.075 211.976 172.845 207.415C173.631 202.854 174.089 198.231 174.196 193.594C174.31 198.239 173.959 202.884 173.326 207.491C172.655 212.091 171.624 216.66 170.03 221.053C168.458 225.447 166.229 229.68 163.055 233.181C161.468 234.928 159.636 236.469 157.591 237.674L156.019 238.513L154.417 239.238C153.875 239.467 153.325 239.673 152.776 239.894C152.227 240.1 151.662 240.275 151.105 240.466C148.846 241.137 146.465 241.572 144.062 241.374C142.864 241.274 141.658 241 140.551 240.451C139.445 239.909 138.461 239.093 137.758 238.056C137.079 237.011 136.675 235.775 136.721 234.509C136.736 233.258 137.232 231.961 138.224 231.092C138.483 230.893 138.75 230.695 139.048 230.565C139.193 230.481 139.346 230.436 139.498 230.382L139.918 230.245C140.353 230.123 140.727 229.749 141.047 229.33C141.673 228.46 142.078 227.377 142.406 226.294C143.054 224.105 143.405 221.816 143.688 219.52C143.962 217.224 144.13 214.913 144.26 212.602C144.512 207.995 144.558 203.357 144.512 198.712Z" fill="#C58F2C"/>
<path d="M102.045 198.739C108.246 211.501 129.36 220.159 142.964 225.599Z" fill="#E4B652"/>
<path d="M102.045 198.739C108.246 211.501 129.36 220.159 142.964 225.599" stroke="#C58F2C" stroke-width="1.302" stroke-miterlimit="10"/>
<path d="M189.457 226.73C186.137 224.984 183.276 222.215 181.62 218.752C180.803 217.02 180.376 215.098 180.33 213.184C180.284 211.261 180.62 209.347 181.208 207.524C181.818 205.701 182.719 204.023 183.688 202.383C184.726 200.796 185.817 199.24 187.091 197.837C189.579 194.984 192.379 192.452 195.348 190.148L193.295 192.07C192.601 192.696 191.967 193.397 191.296 194.053C190.617 194.702 189.999 195.403 189.365 196.09C188.717 196.761 188.137 197.493 187.541 198.218C186.359 199.66 185.275 201.178 184.283 202.749C183.36 204.358 182.497 206.006 181.933 207.76C181.353 209.507 181.002 211.33 181.032 213.161C181.048 214.991 181.46 216.807 182.162 218.508C182.887 220.201 183.94 221.75 185.191 223.13C186.42 224.511 187.862 225.731 189.457 226.73Z" fill="#C48F2C"/>
<path d="M93.9664 231.477C95.531 231.477 96.7993 230.819 96.7993 230.008C96.7993 229.197 95.531 228.539 93.9664 228.539C92.4019 228.539 91.1335 229.197 91.1335 230.008C91.1335 230.819 92.4019 231.477 93.9664 231.477Z" fill="#C58F2C"/>
<path d="M91.0284 234.833C92.2453 234.833 93.2318 234.316 93.2318 233.679C93.2318 233.042 92.2453 232.525 91.0284 232.525C89.8115 232.525 88.8251 233.042 88.8251 233.679C88.8251 234.316 89.8115 234.833 91.0284 234.833Z" fill="#C58F2C"/>
<path d="M93.7561 237.352C95.0889 237.352 96.1693 236.976 96.1693 236.513C96.1693 236.049 95.0889 235.673 93.7561 235.673C92.4233 235.673 91.3429 236.049 91.3429 236.513C91.3429 236.976 92.4233 237.352 93.7561 237.352Z" fill="#C58F2C"/>
<path d="M99.7369 236.3C102.518 236.3 104.773 235.125 104.773 233.676C104.773 232.228 102.518 231.053 99.7369 231.053C96.9555 231.053 94.7007 232.228 94.7007 233.676C94.7007 235.125 96.9555 236.3 99.7369 236.3Z" fill="#C58F2C"/>
<path d="M111.804 221.237C111.804 221.237 98.8243 222.297 98.1604 223.151Z" fill="#E4B652"/>
<path d="M111.804 221.237C110.667 221.45 109.523 221.61 108.386 221.763C107.249 221.923 106.104 222.053 104.96 222.19L101.533 222.564C100.961 222.617 100.389 222.686 99.8239 222.77C99.2592 222.854 98.664 222.884 98.1604 223.151C98.3664 222.938 98.664 222.854 98.9311 222.747C99.2058 222.655 99.4882 222.571 99.7705 222.495C100.335 222.358 100.9 222.243 101.472 222.129C102.609 221.908 103.754 221.763 104.898 221.626C106.043 221.504 107.195 221.389 108.348 221.328C109.5 221.267 110.652 221.221 111.804 221.237Z" fill="#C58F2C"/>
<path d="M59.7207 133.689C59.884 131.88 61.4824 130.546 63.291 130.71V130.71C65.0995 130.873 66.4332 132.472 66.2699 134.28L64.4217 154.746L57.8725 154.155L59.7207 133.689Z" fill="#565961"/>
<path d="M56.0641 154.495C56.8185 152.328 58.9508 150.953 61.2358 151.159L61.6462 151.196C63.9312 151.403 65.7826 153.138 66.1366 155.404L66.5802 158.244L55.119 157.209L56.0641 154.495Z" fill="#565961"/>
<path d="M50.5113 160.177C51.122 157.804 53.3627 156.223 55.8032 156.443L66.0499 157.369C68.4904 157.589 70.4116 159.546 70.5874 161.99L71.955 181.011L45.7582 178.645L50.5113 160.177Z" fill="#FAE265"/>
<path d="M50.1939 152.216C47.3583 152.647 41.7843 155.455 42.1733 163.234" stroke="#939393" stroke-linecap="round" stroke-linejoin="round"/>
<path d="M72.2091 154.211C75.0949 155.033 80.4709 158.821 78.8887 167.398" stroke="#939393" stroke-linecap="round" stroke-linejoin="round"/>
<path d="M44.5062 151.025C41.6705 151.456 36.0965 154.264 36.4856 162.043" stroke="#939393" stroke-linecap="round" stroke-linejoin="round"/>
<path d="M77.4568 153.426C80.3426 154.248 85.7186 158.036 84.1364 166.613" stroke="#939393" stroke-linecap="round" stroke-linejoin="round"/>
<path d="M43.1129 178.54L47.5525 172.857L71.4764 174.939L74.7204 181.6L43.1129 178.54Z" fill="#FAE265"/>
<path d="M67.3231 160.079C67.6594 160.191 68.3319 160.818 68.3319 162.432C68.3319 164.046 68.3319 168.709 68.3319 170.839C68.3319 171.063 68.3991 171.713 68.6681 172.52" stroke="#FEF8C7" stroke-width="2" stroke-linecap="round" stroke-linejoin="round"/>
</svg>
